X:267
T:Kaswa
Z:Jack Campin, http://www.campin.me.uk/
F:Jack Campin's Nine-Note Tunebook
% last edit 03-02-2013
G:Peruvian ritual dance performed in bird costumes
S:http://quenaycharango.blogspot.com
M:3/8
L:1/8
Q:3/8=112
K:DMin
 z2 (A|.d)d2|       dcA        | c3   | (A.c)z| (G.c)z| ({cAG}.F).F.F|  D3 |
 z2 (A|.d)d2|       d2 (3d/c/A/| c3   | (Ac).c        | ({cAG}.F).F.F|  D3 | 
(FGA- | AAc)|      (G.c)z             | (A.c)z|(2Gc   | ({cAG}.F).F.F|  D3 |
(FGA) |.A.Az|                   (AcG  |(2cA)          |  ({AG}.F).F.F|  D3 |
 z2 (A| d3) |       dcA        | c2(A |  c)zG         |({GcAG}.F).F.F|  D3 |
 z2 (A|.d)d2|(4:3:4.c.d.c.A    | c3   | (A.c)z| (G.c)z| ({cAG}.F).F.F|  D3 |
(FGA- | AAc)|      (G.c)z      |(A.c)z|  G3           |({GcAG}.F).F.F|  D3 |
(FGA) | AA2 |                   (AcG  |  c2)(A|  c2)G | ({GAG}.F).F.F|H.D3|]

